X:63
T:The Star of Munster
R:Reel
S:Paddy Canny, Clare (fiddle)
Z:Bernie Stocks
N:As played
D:Home tape of unknown provenance
H:'f2' in bar 17 slid heavily, as are ALL long notes in bars 23 & 24
H:Very similar to Tommy Potts' version
M:4/4
K:F
{c}BAGB AGFD | GFDF {G}FDCF | DE(3FEF GABc | dg(3.g.g.g fdcA |
{c}BAGB AGFD | GFDF {G}FDCF | DE(3FEF BABc | defc AGG2 |
~B3A G3F | (3.F.F.D CF DFCF | DE~F2 GABc | dg(3.g.g.g fdcA |
dcAd cAGc | AGFD GFD2 | G,A,B,D GABc | defc AGG2 ||
^fg{a}g f-gd(3.d.d.d | gdad gdde | f2{g}fe fc(3.c.c.c | ^fgag fdcA |
dg{a}g ^f-gd(3.d.d.d | gdad gdde | f4 a~g4 | ~a3g ^fdcA :|
<end>
<start>
